assets/icons/qvision/phone_missed.svg

<svg xmlns="http://www.w3.org/2000/svg" height="24" viewBox="0 0 24 24" width="24"><path d="M0 0h24v24H0z" fill="none"/><path d="M6.5 5.5L12 11l7-7-1-1-6 6-4.5-4.5H11V3H5v6h1.5V5.5zm17.21 11.17C20.66 13.78 16.54 12 12 12 7.46 12 3.34 13.78.29 16.67c-.18.18-.29.43-.29.71s.11.53.29.71l2.48 2.48c.18.18.43.29.71.29.27 0 .52-.11.7-.28.79-.74 1.69-1.36 2.66-1.85.33-.16.56-.5.56-.9v-3.1c1.45-.48 3-.73 4.6-.73 1.6 0 3.15.25 4.6.72v3.1c0 .39.23.74.56.9.98.49 1.87 1.12 2.67 1.85.18.18.43.28.7.28.28 0 .53-.11.71-.29l2.48-2.48c.18-.18.29-.43.29-.71s-.12-.52-.3-.7z"/></svg>

<svg width="24" height="24" viewBox="0 0 24 24" fill="none" xmlns="http://www.w3.org/2000/svg">
<g clip-path="url(#clip0_147_6004)">
<path d="M6.5 5.5L12 11L19 4L18 3L12 9L7.5 4.5H11V3H5V9H6.5V5.5ZM23.71 16.67C20.66 13.78 16.54 12 12 12C7.46 12 3.34 13.78 0.29 16.67C0.11 16.85 0 17.1 0 17.38C0 17.66 0.11 17.91 0.29 18.09L2.77 20.57C2.95 20.75 3.2 20.86 3.48 20.86C3.75 20.86 4 20.75 4.18 20.58C4.97 19.84 5.87 19.22 6.84 18.73C7.17 18.57 7.4 18.23 7.4 17.83V14.73C8.85 14.25 10.4 14 12 14C13.6 14 15.15 14.25 16.6 14.72V17.82C16.6 18.21 16.83 18.56 17.16 18.72C18.14 19.21 19.03 19.84 19.83 20.57C20.01 20.75 20.26 20.85 20.53 20.85C20.81 20.85 21.06 20.74 21.24 20.56L23.72 18.08C23.9 17.9 24.01 17.65 24.01 17.37C24.01 17.09 23.89 16.85 23.71 16.67Z" fill="#323232"/>
</g>
<defs>
<clipPath id="clip0_147_6004">
<rect width="24" height="24" fill="white"/>
</clipPath>
</defs>
</svg>
